brandFactory_export/1.Light/Favoritos_1Light.svg

<?xml version="1.0" encoding="UTF-8"?>
<svg width="24px" height="24px" viewBox="0 0 24 24" version="1.1" xmlns="http://www.w3.org/2000/svg" xmlns:xlink="http://www.w3.org/1999/xlink">
    <title>1.Light/Favoritos_1Light</title>
    <g id="Symbols" stroke="none" stroke-width="1" fill="none" fill-rule="evenodd">
        <g id="1.Light/Favoritos_1Light" fill="#5CB615" fill-rule="nonzero">
            <path d="M17.707563,23.6403361 C17.3378151,23.6403361 16.9680672,23.5462185 16.6218487,23.3546218 L12.0168067,20.8302521 C11.902521,20.7663866 11.7647059,20.7663866 11.6470588,20.8302521 L7.04201681,23.3546218 C6.27226891,23.7781513 5.38151261,23.7243697 4.66218487,23.2168067 C3.90588235,22.6823529 3.53277311,21.7714286 3.68739496,20.8403361 L4.56806723,15.4957983 C4.59159664,15.3512605 4.54453782,15.2033613 4.44369748,15.0991597 L0.719327731,11.3142857 C0.0773109244,10.6621849 -0.141176471,9.70756303 0.154621849,8.82689076 C0.440336134,7.96638655 1.13277311,7.37142857 2.00336134,7.24033613 L7.15294118,6.4605042 C7.28739496,6.44033613 7.40168067,6.35294118 7.45882353,6.22857143 L9.76134454,1.36470588 C10.1512605,0.537815126 10.9445378,0.0268907563 11.8319328,0.0268907563 C12.7193277,0.0268907563 13.512605,0.541176471 13.9058824,1.36470588 L16.2084034,6.22857143 C16.2689076,6.35630252 16.3831933,6.44369748 16.5176471,6.46386555 L21.6638655,7.24369748 C22.5344538,7.37478992 23.2268908,7.9697479 23.512605,8.8302521 C23.805042,9.71092437 23.589916,10.6655462 22.9478992,11.3176471 L19.2201681,15.0991597 C19.1193277,15.2033613 19.0722689,15.3512605 19.0991597,15.4957983 L19.9798319,20.8403361 C20.1344538,21.7714286 19.7613445,22.6857143 19.005042,23.2168067 C18.605042,23.4991597 18.1579832,23.6403361 17.707563,23.6403361 Z M11.8319328,20.1109244 C12.0067227,20.1109244 12.1815126,20.1546218 12.3394958,20.2420168 L16.9445378,22.7663866 C17.4857143,23.0621849 18.1109244,23.0252101 18.6151261,22.6689076 C19.1563025,22.2857143 19.4252101,21.6268908 19.3142857,20.9478992 L18.4336134,15.6033613 C18.3731092,15.2504202 18.487395,14.8840336 18.7394958,14.6285714 L22.4672269,10.8436975 C22.9310924,10.3731092 23.0890756,9.68067227 22.8739496,9.03865546 C22.6689076,8.42352941 22.1781513,8 21.5630252,7.90588235 L16.4134454,7.12605042 C16.0537815,7.06890756 15.7512605,6.84033613 15.6,6.51092437 L13.297479,1.65042017 C13.0151261,1.05210084 12.4672269,0.695798319 11.8319328,0.695798319 C11.1966387,0.695798319 10.6487395,1.05210084 10.3663866,1.65042017 L8.06386555,6.51428571 C7.91260504,6.84033613 7.61008403,7.06890756 7.25378151,7.12605042 L2.10420168,7.90588235 C1.48907563,8 0.998319328,8.42352941 0.793277311,9.03865546 C0.581512605,9.68067227 0.736134454,10.3697479 1.2,10.8436975 L4.92436975,14.6252101 C5.17647059,14.8840336 5.2907563,15.2504202 5.2302521,15.6033613 L4.34957983,20.9478992 C4.23865546,21.6235294 4.50756303,22.2823529 5.0487395,22.6689076 C5.55294118,23.0252101 6.17815126,23.0621849 6.71596639,22.7663866 L11.3210084,20.2420168 C11.4823529,20.1546218 11.6571429,20.1109244 11.8319328,20.1109244 Z" id="Favoritos_1Light"></path>
        </g>
    </g>
</svg>

<svg width="24" height="24" viewBox="0 0 24 24" xmlns="http://www.w3.org/2000/svg"><path d="M17.708 23.64c-.37 0-.74-.094-1.086-.285l-4.605-2.525a.38.38 0 00-.37 0l-4.605 2.525c-.77.423-1.66.37-2.38-.138a2.4 2.4 0 01-.975-2.377l.881-5.344a.465.465 0 00-.124-.397L.719 11.314a2.428 2.428 0 01-.564-2.487c.285-.86.978-1.456 1.848-1.587l5.15-.78a.403.403 0 00.306-.231L9.76 1.365c.39-.827 1.184-1.338 2.07-1.338.888 0 1.682.514 2.075 1.338l2.302 4.864a.41.41 0 00.31.235l5.146.78c.87.13 1.563.726 1.849 1.586.292.88.077 1.836-.565 2.488l-3.728 3.781a.453.453 0 00-.12.397l.88 5.344c.154.931-.219 1.846-.975 2.377-.4.282-.847.423-1.297.423zm-5.876-3.53c.175 0 .35.045.507.132l4.606 2.524a1.552 1.552 0 001.67-.097c.541-.383.81-1.042.7-1.721l-.881-5.345c-.06-.353.053-.719.305-.974l3.728-3.785c.464-.47.622-1.163.407-1.805-.205-.615-.696-1.039-1.311-1.133l-5.15-.78a1.075 1.075 0 01-.813-.615l-2.303-4.86c-.282-.599-.83-.955-1.465-.955-.635 0-1.183.356-1.466.954L8.064 6.514a1.08 1.08 0 01-.81.612l-5.15.78C1.49 8 .998 8.424.794 9.039a1.77 1.77 0 00.406 1.805l3.724 3.781c.252.259.367.625.306.978l-.88 5.345c-.111.676.158 1.334.699 1.72.504.357 1.13.394 1.667.098l4.605-2.524a1.07 1.07 0 01.51-.131z" fill="#5CB615" fill-rule="nonzero"/></svg>
